!!!COM: Boka, Simon-Pierre
!!!CDT: b. 1929
!!!OTL: National Anthem; Congo, Democratic Republic of
!!!ENC: Davis, Matthew J.
!!Vocal Line Only (top line)
**kern
*clefG2
*k[]
*C:
*M4/4
=1-
8cc
=2
4e
8.c
16e
4.g
16r
16g
=3
4e
8.c
16e
4.g
8r
=4
4e
8.c
16e
8.g
16e
8.g
16e
=5
8.g
16e
8.g
16a
[2g
=6
2g]
8r
8cc
8b
8a
=7
[2g
8g]
8cc
8b
8a
=8
[2g
8g]
8cc
8b
8a
=9
4dd
8g
16cc
8b
16g
8a
8b
=10
4g
8.a
16b
4g
!Chorus
8.g
16e
=11
2.g
8.g
16e
=12
[2g
8g]
8g
8e
8f
=13
8g
8g
8f
8a
8g
8f
8e
8f
=14
2.g
8.g
16e
=15
2.g
8.g
16e
=16
[2g
8g]
8g
8e
8f
=17
8g
8g
8f
8a
8g
8f
8e
8d
=18
4c
4B
4c
==19
8.g
16e
=20
4g
4d
4c
8.g
16e
=21
4g
4d
4c
8.g
16e
=22
4g
4d
4c
8.g
16e
=23
4g
4d
8c
8g
8e
8f
=24
8g
8g
8f
8a
8g
8f
8e
8d
=25
4c
8.d
16e
4c
8.e
16f
=26
8.g
16a
8.g
16e
4g
8.e
16f
=27
8.g
16a
8.g
16e
4g
8.e
16f
=28
8.g
16a
8.g
16e
4g
8.e
16f
=29
8.g
16a
8.g
16e
4g
8e
8g
=30
4cc
8g
8cc
[2ee
=31
8ee]
8cc
8b
8a
4g
8cc
8ee
=32
8dd
8gg
8b
8dd
4cc
8g
8g
=33
[2cc
4cc]
8r
==|!
*-
